X: 1320
T: Kırsa Bin Tel Naz ile
C: Bîmen Şen
O: Turkey
F: http://compmusic.upf.edu/node/140
N: hicazkar--sarki--agiraksak--kirsa_bin_tel--bimen_sen
N: makam= hicazkar
N: form= sarki
N: usul= agiraksak = 9/4
M: 9/4
L: 1/16
K: C _1/4B _7/8e _7/8A ^f
Q: 1/4=68
%%MIDI tuningsystem comma53
fga4gf efg4fe def4ed gfed dccB c4  | 
w:  ARANAĞME  | 
dcBc d2e2 f2g2 a2b2 a3g fgaf g2fe dcBA G4  | 
w:   | 
fga4gf efg4fe def4ed cde4dc BcBA  | 
w:   | 
G3A B2c2 defg fedc B3c BAAG G4 d2ef g4  | 
w:   | 
fga4gf efg4fe def4ed gfed dccB c4  | 
w:  ARANAĞME  | 
dcBc d2e2 f2g2 a2b2 a3g fgaf g2fe dcBA G4  | 
w:   | 
fga4gf efg4fe def4ed cde4dc BcBA  | 
w:   | 
G3A B2c2 defg fedc B3c BAAG G8 z4  | \
w:   | 
z8-z2g4c'2 b3a g2b2 a3g f2a2 g2f2  | 
w:  Kır sa  bin  *  *  *  tel  | 
g3f ede2 z2f4g2 f2e2 d2c2 d2ed c2B2 c2d2  | \
w:  *  *  *  *  *  naz_ i le  *  *  *  terk_  | 
c2d8d4e2 f2g2 e4 f2g2 a2b2 g2a2  | 
w:  *  *  i  e sa *  *  ret   | 
b2c'2 bagf g2c'4ba b2a4ag g6d2 e2f2  | \
w:  *  *  *  *  *  *  *  ey *  *  *  *  le  *  mem  SAZ  | 
g8 z2c4g2 g6=f2 a3g f4 e4  | 
w:  *  Kıl  ka dar  *  sev  | 
g3=f e2d4g2 ^f2g2 e3d c4 d2ef d2c2 B2A2  | \
w:  *  *  *  *  da *  yı  zül *  *  fün  | 
Bcde dcBA G2G4B2 A2BA G4 g12  | 
w:  *  *  *  *  *  *  *  *  *  den  fe ra *  *  *  gat   | 
=f2e2 d2c2 B2c4BA B2A4AG G6d2 e2^f2  | \
w:  *  *  *  *  *  ey *  *  *  *  le  *  mem  SAZ  | 
g8 z2c4g2 g6=f2 a3g f4 e4  | 
w:  *  Kıl  ka dar  *  sev  | 
g3=f e2d4g2 ^f2g2 e3d c4 d2ef d2c2 B2A2  | \
w:  *  *  *  *  da *  yı  zül *  *  fün  | 
Bcde dcBA G2G4B2 A2BA G4 g12  | 
w:  *  *  *  *  *  *  *  *  *  den  fe ra *  *  *  gat   | 
=f2e2 d2c2 B2c4BA B2A4AG G6c'2 _b2d'2  | \
w:  *  *  *  *  *  ey *  *  *  *  le  *  mem  SAZ  | 
c'8 z2_b4c'2 c'8 b2b_1/4a g4 =a4  | 
w:  *  Her  se men  bu   | 
g2=f4_1/4e2 z2=a2 g2a2 g2f4e2 f3e d2f2 e3d  | \
w:  *  *  *  dil *  be re  *  *  arz_  | 
d2dc c6c4g2 f2g2 e4 f2g2 a2b2 g2a2  | 
w:  *  *  *  *  ı  mu hab *  *  bet   | 
b2c'2 bagf g2c'4ba b2a4ag g6d2 e2f2  | \
w:  *  *  *  *  *  *  *  ey *  *  *  *  le  *  mem  SAZ  | 
g8 z2c4g2 g6=f2 a3g f4 e4  | 
w:  *  Kıl  ka dar  *  sev  | 
g3=f e2d4g2 ^f2g2 e3d c4 d2ef d2c2 B2A2  | \
w:  *  *  *  *  da *  yı  zül *  *  fün  | 
Bcde dcBA G2G4B2 A2BA G4 g12  | 
w:  *  *  *  *  *  *  *  *  *  den  fe ra *  *  *  gat   | 
=f2e2 d2c2 B2c4BA B2A4AG G6d2 e2^f2  | \
w:  *  *  *  *  *  ey *  *  *  *  le  *  mem  SAZ  | 
g8 z2c4g2 g6=f2 a3g f4 e4  | 
w:  *  Kıl  ka dar  *  sev  | 
g3=f e2d4g2 ^f2g2 e3d c4 d2ef d2c2 B2A2  | \
w:  *  *  *  *  da *  yı  zül *  *  fün  | 
Bcde dcBA G2G4B2 A2BA G4 g12  | 
w:  *  *  *  *  *  *  *  *  *  den  fe ra *  *  *  gat   | 
=f2e2 d2c2 B2c4BA B2A4AG G4 CDEF G4  | |


